img/advertisement-mobile-fill-1.svg

<svg height="16" viewBox="0 0 18 16" width="18" xmlns="http://www.w3.org/2000/svg"><path d="m18 1.89378966c-.6620625.321169-1.3741875.538358-2.1211875.63618534.76275-.50021149 1.3483125-1.29144395 1.6239375-2.23464718-.71325.46268026-1.504125.79861565-2.3450625.98011921-.673875-.78507979-1.6335-1.27544703-2.6955-1.27544703-2.039625 0-3.6928125 1.80826764-3.6928125 4.03922323 0 .31624687.032625.62449529.095625.92043837-3.0695625-.16858296-5.790375-1.77688906-7.61175-4.22072678-.3178125.59680831-.5000625 1.29082869-.5000625 2.03099404 0 1.40096135.6519375 2.63764661 1.6425 3.36181504-.60525-.02091906-1.1745-.20242262-1.6723125-.50513363-.0005625.01722745-.0005625.03383964-.0005625.0510671 0 1.95716208 1.2729375 3.58946356 2.9626875 3.96046914-.3099375.09228994-.6361875.14151125-.973125.14151125-.2379375 0-.469125-.02522592-.6946875-.07198616.4696875 1.6046145 1.83375 2.7723899 3.4498125 2.804999-1.2639375 1.083484-2.856375 1.7288983-4.586625 1.7288983-.298125 0-.59175-.0190732-.880875-.0559892 1.6340625 1.1456258 3.57525 1.8144203 5.661 1.8144203 6.79275 0 10.5069375-6.15512401 10.5069375-11.49255912 0-.1753509-.003375-.34947126-.0106875-.52297635.7216875-.56912133 1.34775-1.28036916 1.84275-2.09067487" fill="#9b9b9b" fill-rule="evenodd"/></svg>

<?xml version="1.0" encoding="UTF-8"?>
<svg width="18px" height="16px" viewBox="0 0 18 16" version="1.1" xmlns="http://www.w3.org/2000/svg" xmlns:xlink="http://www.w3.org/1999/xlink">
    <!-- Generator: Sketch 50.2 (55047) - http://www.bohemiancoding.com/sketch -->
    <desc>Created with Sketch.</desc>
    <defs></defs>
    <g id="Page-1" stroke="none" stroke-width="1" fill="none" fill-rule="evenodd">
        <path d="M18,1.89378966 C17.3379375,2.21495866 16.6258125,2.43214766 15.8788125,2.529975 C16.6415625,2.02976351 17.227125,1.23853105 17.50275,0.295327822 C16.7895,0.758008075 15.998625,1.09394347 15.1576875,1.27544703 C14.4838125,0.490367237 13.5241875,0 12.4621875,0 C10.4225625,0 8.769375,1.80826764 8.769375,4.03922323 C8.769375,4.3554701 8.802,4.66371852 8.865,4.9596616 C5.7954375,4.79107864 3.074625,3.18277254 1.25325,0.73893482 C0.9354375,1.33574313 0.7531875,2.02976351 0.7531875,2.76992886 C0.7531875,4.17089021 1.405125,5.40757547 2.3956875,6.1317439 C1.7904375,6.11082484 1.2211875,5.92932128 0.723375,5.62661027 C0.7228125,5.64383772 0.7228125,5.66044991 0.7228125,5.67767737 C0.7228125,7.63483945 1.99575,9.26714093 3.6855,9.63814651 C3.3755625,9.73043645 3.0493125,9.77965776 2.712375,9.77965776 C2.4744375,9.77965776 2.24325,9.75443184 2.0176875,9.7076716 C2.487375,11.3122861 3.8514375,12.4800615 5.4675,12.5126706 C4.2035625,13.5961546 2.611125,14.2415689 0.880875,14.2415689 C0.58275,14.2415689 0.289125,14.2224957 0,14.1855797 C1.6340625,15.3312055 3.57525,16 5.661,16 C12.45375,16 16.1679375,9.84487599 16.1679375,4.50744088 C16.1679375,4.33208998 16.1645625,4.15796962 16.15725,3.98446453 C16.8789375,3.4153432 17.505,2.70409537 18,1.89378966" id="Fill-1" fill="#9B9B9B"></path>
    </g>
</svg>
